X: 1
T: the Third Victory
C: Frank Ferrel %251 2004
R: jig
Z: 2007 John Chambers <jc:trillian.mit.edu>
M: 6/8
L: 1/8
K: A
|: c2A BAF | A3 FEC | "*"E2F Ace | f{g}af ecB \
|  c3  BAF | AAA FEC | EFA cec | BAF A3 :|
|: a2A cBA | f{g}af ece | f3 fec | efa feg \
|  a2A cBA | f{g}af ece | f{g}af ecB | cAA A3 :|
y6 y6 y6 y6 "* alt bar 3"| EFA cea | \
